talent/images/icons/smartphone@1x.svg

<svg width="17" height="32" viewBox="0 0 17 32" fill="none" xmlns="http://www.w3.org/2000/svg">
<g id="smartphone">
<circle id="Oval" cx="8.4375" cy="25.4375" r="0.9375" fill="#E0EEF9"/>
<path id="Combined Shape" fill-rule="evenodd" clip-rule="evenodd" d="M14.0625 32C15.6134 32 16.875 30.7384 16.875 29.1875V2.8125C16.875 1.26163 15.6134 0 14.0625 0H2.8125C1.26163 0 0 1.26163 0 2.8125V29.1875C0 30.7384 1.26163 32 2.8125 32H14.0625ZM8.4375 22.625C9.98837 22.625 11.25 23.8866 11.25 25.4375C11.25 26.9884 9.98837 28.25 8.4375 28.25C6.88663 28.25 5.625 26.9884 5.625 25.4375C5.625 23.8866 6.88663 22.625 8.4375 22.625ZM12.1667 17H4.83333C3.82239 17 3 16.4875 3 15.8574V5.14258C3 4.51254 3.82239 4 4.83333 4H12.1667C13.1776 4 14 4.51254 14 5.14258V15.8574C14 16.4875 13.1776 17 12.1667 17Z" fill="white"/>
</g>
</svg>

<svg width="17" height="32" fill="none" xmlns="http://www.w3.org/2000/svg"><circle cx="8.438" cy="25.438" r=".938" fill="#E0EEF9"/><path fill-rule="evenodd" clip-rule="evenodd" d="M14.063 32a2.816 2.816 0 002.812-2.813V2.813A2.816 2.816 0 0014.062 0H2.813A2.816 2.816 0 000 2.813v26.375A2.816 2.816 0 002.813 32h11.25zm-5.626-9.375a2.816 2.816 0 012.813 2.813 2.816 2.816 0 01-2.813 2.812 2.816 2.816 0 01-2.812-2.813 2.816 2.816 0 012.813-2.812zM12.168 17H4.833C3.823 17 3 16.488 3 15.857V5.143C3 4.513 3.822 4 4.833 4h7.334C13.177 4 14 4.513 14 5.143v10.714c0 .63-.822 1.143-1.833 1.143z" fill="#fff"/></svg>
